img/icon-wallet.svg

<svg width="48" height="48" viewBox="0 0 48 48" fill="none" xmlns="http://www.w3.org/2000/svg">
<g clip-path="url(#clip0)">
<path d="M45.7115 28.115H44.9932V21.6449C44.9932 20.6206 44.4834 19.7136 43.7048 19.1626V18.2816C43.7048 17.0037 42.6652 15.9641 41.3873 15.9641H40.851L42.9031 12.9529C43.5909 11.9435 43.3294 10.5627 42.32 9.87476L28.3953 0.385382C27.9064 0.0521011 27.317 -0.0708989 26.7354 0.0394449C26.1541 0.149601 25.6504 0.479507 25.3172 0.968507L13.2983 18.605H9.9538L10.7607 10.4366C10.7698 10.3445 10.8296 10.2648 10.913 10.2334C11.9526 9.84138 12.8536 9.10938 13.4498 8.17226C13.4968 8.09848 13.5854 8.05629 13.6771 8.06557L18.9229 8.58382C19.299 8.62029 19.6336 8.34635 19.6707 7.97041C19.7078 7.59448 19.4332 7.2597 19.0573 7.22257L13.8115 6.70432C13.2026 6.6447 12.6219 6.92529 12.2957 7.43791C11.8573 8.12698 11.1949 8.6651 10.4305 8.95329C9.85517 9.17023 9.46011 9.68698 9.39936 10.3021L8.57923 18.6049H7.70708L8.9832 5.68582C9.02914 5.22082 9.44417 4.8792 9.90973 4.92579L20.5104 5.97298C20.8864 6.00926 21.2211 5.73551 21.2583 5.35957C21.2954 4.98363 21.0208 4.64885 20.6449 4.61173L10.0442 3.56454C8.8288 3.44463 7.74195 4.33573 7.62186 5.55129L6.59323 15.9641H4.84151C3.5637 15.9641 2.52401 17.0037 2.52401 18.2816V18.8825C1.47861 19.3639 0.750732 20.4206 0.750732 21.6449V44.96C0.750732 46.6363 2.11442 48 3.79076 48H41.9533C43.6296 48 44.9932 46.6363 44.9932 44.96V38.49H45.7115C46.5594 38.49 47.2491 37.8003 47.2491 36.9525V29.6526C47.2492 28.8048 46.5594 28.115 45.7115 28.115ZM41.3873 17.3321C41.911 17.332 42.3369 17.758 42.3369 18.2817V18.6302C42.2111 18.6142 42.0833 18.6051 41.9533 18.6051H39.0513L39.9187 17.3321H41.3873ZM26.4475 1.73876C26.575 1.55173 26.7677 1.42554 26.99 1.38335C27.0432 1.37332 27.0965 1.36826 27.1495 1.36826C27.318 1.36826 27.4826 1.4187 27.6249 1.51563L41.5497 11.005C41.9358 11.2682 42.0359 11.7964 41.7728 12.1824L37.396 18.6049H36.3456L38.4915 15.4561C38.8395 14.9454 38.8682 14.2955 38.5661 13.7599C38.1647 13.0484 38.0019 12.2105 38.1079 11.4006C38.1866 10.7981 37.9215 10.2099 37.416 9.86548L30.1974 4.94623C29.6918 4.6017 29.0474 4.5701 28.5155 4.86382C27.8006 5.25851 26.9613 5.41348 26.1522 5.30023C25.5522 5.21604 24.9437 5.48698 24.6008 5.98995L16.004 18.6049H14.9537L26.4475 1.73876ZM26.7487 13.3535C23.7702 13.3535 21.3252 15.676 21.126 18.6049H17.6592L25.731 6.76029C25.7311 6.76029 25.7311 6.76029 25.7311 6.76029C25.7769 6.69288 25.853 6.65276 25.931 6.65276C25.9415 6.65276 25.9519 6.65351 25.9623 6.65491C27.0627 6.80885 28.2041 6.59829 29.1765 6.06138C29.253 6.01901 29.3512 6.0251 29.427 6.07666L36.6456 10.996C36.7212 11.0476 36.7627 11.1368 36.7515 11.2234C36.6074 12.3249 36.8288 13.4644 37.3747 14.432C37.4185 14.5098 37.4132 14.6093 37.3612 14.6857L34.6905 18.6049H32.3718C32.1724 15.676 29.7275 13.3535 26.7487 13.3535ZM31.0001 18.605H22.4975C22.6934 16.4311 24.5247 14.7215 26.7487 14.7215C28.9729 14.7214 30.8043 16.4311 31.0001 18.605ZM3.89192 18.2816C3.89192 17.7579 4.31783 17.3319 4.84151 17.3319H6.45814L6.33242 18.6049H3.89192V18.2816ZM2.11864 21.6449C2.11864 20.7229 2.86873 19.9729 3.79076 19.9729H41.9533C42.8753 19.9729 43.6253 20.7229 43.6253 21.6449V23.5428H2.11864V21.6449ZM43.6253 44.96C43.6253 45.882 42.8753 46.6321 41.9533 46.6321H3.79076C2.86873 46.6321 2.11864 45.882 2.11864 44.96V43.0622H5.80695C6.18476 43.0622 6.49086 42.756 6.49086 42.3783C6.49086 42.0005 6.18467 41.6944 5.80695 41.6944H2.11864V24.9107H43.6253V28.115H37.1223H37.1222C35.0732 28.115 33.2983 29.3094 32.456 31.0383C32.4531 31.0441 32.45 31.0497 32.447 31.0555C32.4399 31.0702 32.4337 31.0855 32.4268 31.1003C32.3265 31.3134 32.2393 31.534 32.1683 31.7616C32.1681 31.7623 32.168 31.7629 32.1678 31.7635C32.0164 32.25 31.9347 32.7668 31.9347 33.3025C31.9347 36.1629 34.2618 38.49 37.1221 38.49H37.1222H43.6252V41.6944H10.1864C9.80858 41.6944 9.50248 42.0005 9.50248 42.3783C9.50248 42.756 9.80867 43.0622 10.1864 43.0622H43.6253V44.96ZM45.8813 36.9524C45.8813 37.0459 45.8052 37.1221 45.7115 37.1221H37.1224C35.6744 37.1221 34.412 36.3122 33.7644 35.1216C33.735 35.0675 33.7069 35.0126 33.68 34.957C33.6262 34.8457 33.5778 34.7314 33.5349 34.6144C33.3847 34.2051 33.3028 33.7632 33.3028 33.3025C33.3028 32.8418 33.3848 32.3999 33.5349 31.9906C33.5779 31.8737 33.6263 31.7594 33.68 31.648C33.7069 31.5924 33.735 31.5375 33.7644 31.4834C34.412 30.2929 35.6744 29.4829 37.1224 29.4829H45.7115C45.8051 29.4829 45.8813 29.5591 45.8813 29.6526V36.9524Z" fill="url(#paint0_linear)"/>
<path d="M37.2826 30.5276C35.7524 30.5276 34.5076 31.7725 34.5076 33.3026C34.5076 34.8327 35.7524 36.0775 37.2826 36.0775C38.8128 36.0775 40.0576 34.8327 40.0576 33.3026C40.0576 31.7725 38.8128 30.5276 37.2826 30.5276ZM37.2826 34.7096C36.5067 34.7096 35.8755 34.0784 35.8755 33.3026C35.8755 32.5268 36.5067 31.8955 37.2826 31.8955C38.0584 31.8955 38.6897 32.5267 38.6897 33.3026C38.6897 34.0785 38.0584 34.7096 37.2826 34.7096Z" fill="url(#paint1_linear)"/>
</g>
<defs>
<linearGradient id="paint0_linear" x1="23.9999" y1="0" x2="23.9999" y2="48" gradientUnits="userSpaceOnUse">
<stop stop-color="#C45ED3"/>
<stop offset="1" stop-color="#FBA2B8"/>
</linearGradient>
<linearGradient id="paint1_linear" x1="37.2826" y1="30.5276" x2="37.2826" y2="36.0775" gradientUnits="userSpaceOnUse">
<stop stop-color="#C45ED3"/>
<stop offset="1" stop-color="#FBA2B8"/>
</linearGradient>
<clipPath id="clip0">
<rect width="48" height="48" fill="white"/>
</clipPath>
</defs>
</svg>

<svg xmlns="http://www.w3.org/2000/svg" width="48" height="48" fill="none"  ><g clip-path="url(#C)"><path d="M45.712 28.115h-.718v-6.47c0-1.024-.51-1.931-1.288-2.482v-.881a2.32 2.32 0 0 0-2.317-2.318h-.536l2.052-3.011a2.22 2.22 0 0 0-.583-3.078L28.395.385a2.2 2.2 0 0 0-1.66-.346 2.2 2.2 0 0 0-1.418.929L13.298 18.605H9.954l.807-8.168c.009-.092.069-.172.152-.203a5.2 5.2 0 0 0 2.537-2.061.24.24 0 0 1 .227-.107l5.246.518c.376.036.711-.237.748-.613s-.238-.711-.613-.748l-5.246-.518a1.6 1.6 0 0 0-1.516.734c-.438.689-1.101 1.227-1.865 1.515a1.6 1.6 0 0 0-1.031 1.349l-.82 8.303h-.872L8.983 5.686a.85.85 0 0 1 .927-.76L20.51 5.973c.376.036.711-.237.748-.613s-.237-.711-.613-.748L10.044 3.565a2.22 2.22 0 0 0-2.422 1.987L6.593 15.964H4.842a2.32 2.32 0 0 0-2.318 2.318v.601c-1.045.481-1.773 1.538-1.773 2.762V44.96c0 1.676 1.364 3.04 3.04 3.04h38.163c1.676 0 3.04-1.364 3.04-3.04v-6.47h.718a1.54 1.54 0 0 0 1.538-1.538v-7.3a1.54 1.54 0 0 0-1.538-1.538zm-4.324-10.783a.95.95 0 0 1 .95.95v.348c-.126-.016-.254-.025-.384-.025h-2.902l.867-1.273h1.469zM26.448 1.739a.84.84 0 0 1 .542-.355.86.86 0 0 1 .16-.015.84.84 0 0 1 .475.147l13.925 9.489a.85.85 0 0 1 .223 1.177l-4.377 6.423h-1.05l2.146-3.149a1.6 1.6 0 0 0 .075-1.696 3.82 3.82 0 0 1-.458-2.359 1.6 1.6 0 0 0-.692-1.535l-7.219-4.919a1.6 1.6 0 0 0-1.682-.082c-.715.395-1.554.55-2.363.436a1.62 1.62 0 0 0-1.551.69l-8.597 12.615h-1.05L26.448 1.739zm.301 11.615c-2.979 0-5.424 2.323-5.623 5.251h-3.467L25.731 6.76c.046-.067.122-.108.2-.108.011 0 .021.001.031.002a5.2 5.2 0 0 0 3.214-.594c.076-.042.175-.036.25.015l7.219 4.919c.076.052.117.141.106.227a5.2 5.2 0 0 0 .623 3.209c.044.078.039.177-.014.254l-2.671 3.919h-2.319c-.199-2.929-2.644-5.251-5.623-5.251zM31 18.605h-8.503c.196-2.174 2.027-3.883 4.251-3.883s4.056 1.71 4.251 3.883zm-27.108-.323a.95.95 0 0 1 .95-.95h1.617l-.126 1.273h-2.44v-.323zm-1.773 3.363c0-.922.75-1.672 1.672-1.672h38.163c.922 0 1.672.75 1.672 1.672v1.898H2.119v-1.898zM43.625 44.96c0 .922-.75 1.672-1.672 1.672H3.791c-.922 0-1.672-.75-1.672-1.672v-1.898h3.688c.378 0 .684-.306.684-.684s-.306-.684-.684-.684H2.119V24.911h41.507v3.204h-6.503c-2.049 0-3.824 1.194-4.666 2.923l-.029.062c-.1.213-.187.434-.258.661-.152.488-.234 1.005-.234 1.541 0 2.86 2.327 5.188 5.187 5.188h6.503v3.204H10.186c-.378 0-.684.306-.684.684s.306.684.684.684h33.439v1.898zm2.256-8.008a.17.17 0 0 1-.17.17h-8.589c-1.448 0-2.71-.81-3.358-2.001l-.084-.165-.145-.343a3.8 3.8 0 0 1-.232-1.312c0-.461.082-.903.232-1.312l.145-.343.084-.165c.648-1.19 1.91-2 3.358-2h8.589a.17.17 0 0 1 .17.17v7.3z" fill="url(#A)"/><path d="M37.283 30.528a2.78 2.78 0 0 0-2.775 2.775 2.78 2.78 0 0 0 2.775 2.775 2.78 2.78 0 0 0 2.775-2.775 2.78 2.78 0 0 0-2.775-2.775zm0 4.182a1.41 1.41 0 0 1-1.407-1.407 1.41 1.41 0 0 1 1.407-1.407 1.41 1.41 0 0 1 1.407 1.407 1.41 1.41 0 0 1-1.407 1.407z" fill="url(#B)"/></g><defs><linearGradient id="A" x1="24" y1="0" x2="24" y2="48" gradientUnits="userSpaceOnUse"><stop stop-color="#c45ed3"/><stop offset="1" stop-color="#fba2b8"/></linearGradient><linearGradient id="B" x1="37.283" y1="30.528" x2="37.283" y2="36.078" gradientUnits="userSpaceOnUse"><stop stop-color="#c45ed3"/><stop offset="1" stop-color="#fba2b8"/></linearGradient><clipPath id="C"><path fill="#fff" d="M0 0h48v48H0z"/></clipPath></defs></svg>
